src/assets/CarFade.svg

<svg width="57" height="20" viewBox="0 0 57 20" fill="none" xmlns="http://www.w3.org/2000/svg">
<path d="M56.8362 11.4953L56.4222 11.253C55.4436 10.684 54.3625 10.3426 53.2473 10.2288C53.1107 10.2174 52.9741 10.2858 52.9173 10.4222C52.8602 10.5474 52.8831 10.6954 52.9855 10.7979C53.5431 11.3327 53.987 11.9698 54.2827 12.6867C54.4762 13.1533 54.8633 13.5061 55.3297 13.6539C55.8026 13.7891 56.3089 13.7236 56.7384 13.4686C56.7828 13.0685 56.8601 12.2392 56.8362 11.4953Z" fill="#C2E1FF"/>
<path d="M56.7385 13.4592C56.3065 13.7201 55.7949 13.7879 55.3177 13.6515C54.851 13.5038 54.4641 13.151 54.2707 12.6844C53.9749 11.9675 53.531 11.3304 52.9734 10.7956C52.8709 10.6931 52.8482 10.5451 52.9052 10.4199C52.962 10.2835 53.0986 10.2151 53.235 10.2264C54.3504 10.3403 55.4315 10.6817 56.4101 11.2506L56.8359 11.4997C56.833 11.4139 56.829 11.3292 56.8235 11.2465C56.7413 10.8334 56.6731 10.6029 56.4556 10.2151C54.6007 6.90384 41.8665 5.44734 38.1794 5.20825L33.5136 2.04498C31.431 0.633942 28.9729 -0.071579 26.4579 0.00799179C18.9927 0.235712 10.3212 1.89701 3.6069 5.17415C2.82169 5.56101 1.97957 5.78873 1.10331 5.84556L1.02365 7.34754C0.955371 8.56514 0.70501 9.78275 0.272571 10.932C-0.205397 12.2064 -0.0460743 13.6402 0.682255 14.7896C1.42195 15.9388 2.66237 16.667 4.01659 16.7695H52.1539L55.0787 16.5988C55.6591 16.5647 56.1826 16.2347 56.4556 15.7226L56.7209 13.6116C56.7258 13.5716 56.7318 13.5202 56.7385 13.4592Z" fill="#AAAAAA"/>
<path d="M1.03513 7.20032L1.02376 7.34809C0.955479 8.5657 0.705118 9.7833 0.272679 10.9325C0.238537 11.0236 0.204396 11.1146 0.181641 11.2171C0.932725 11.365 1.68381 11.0577 1.95692 10.4661C2.08211 10.1815 2.20729 9.89716 2.32108 9.6126C2.66248 8.77049 2.23004 7.81471 1.27412 7.32536L1.03513 7.20032Z" fill="black"/>
<path d="M1.01186 7.57546C0.920825 8.70194 0.681851 9.81705 0.294922 10.8867C0.807032 10.9665 1.42155 10.8071 1.64915 10.3178C1.77433 10.0446 1.88813 9.76022 2.00192 9.47566C2.30918 8.71331 1.79709 7.97369 1.11429 7.62093L1.01186 7.57546Z" fill="black"/>
<path d="M37.9527 5.87891L33.1277 2.60177C31.1817 1.28186 28.8374 0.59908 26.4818 0.67865C21.1786 0.849346 15.2951 1.72556 9.92374 3.40959C9.55958 3.52345 9.33203 3.85348 9.33203 4.22897C9.33203 4.60446 9.58232 4.92312 9.94647 5.02543C9.99213 5.03679 10.0376 5.04835 10.0831 5.05972C17.5371 5.51478 29.213 5.48068 37.9527 5.87891Z" fill="black"/>
<path d="M22.0314 1.34187C19.4025 1.6035 16.7623 2.03601 14.1905 2.62767L13.8377 2.77564C13.5761 2.87794 13.4394 3.16249 13.5077 3.43568C13.5988 3.83391 13.6556 4.23214 13.6784 4.64173C13.6897 4.75559 13.7581 4.84653 13.8604 4.88082C15.1123 4.92629 16.3527 4.96039 17.6045 4.99449C19.2091 5.03996 20.8137 5.07425 22.4069 5.10835L22.0314 1.34187ZM34.2535 3.81118L32.9219 2.91223C31.0443 1.63779 28.7569 0.977741 26.4924 1.04594C25.4795 1.08004 24.4552 1.13707 23.4312 1.21664L24.5123 5.14245L26.2305 5.17655C28.7455 5.22221 31.2605 5.27905 33.7641 5.34725C34.151 5.35862 34.4811 5.13109 34.5949 4.76696C34.6972 4.4142 34.5722 4.02734 34.2535 3.81118Z" fill="#999999"/>
<path d="M22.3955 4.9697L22.3271 5.1063C20.7454 5.0722 19.175 5.03791 17.5931 4.99244C17.1494 4.98107 16.7054 4.9697 16.2617 4.95834L17.7183 1.93147C19.1522 1.69257 20.5975 1.48777 22.0314 1.35118L22.3955 4.9697ZM24.2163 1.15775C23.9544 1.18048 23.6928 1.19185 23.4311 1.21458L23.7042 2.22739L24.2163 1.15775ZM31.5564 2.1249C30.3842 1.55598 29.0983 1.20322 27.801 1.08955L25.8436 5.1745L26.2078 5.18587C27.4823 5.2086 28.7682 5.23152 30.0428 5.26562L31.5564 2.1249Z" fill="white"/>
<path d="M3.68743 16.7354C3.80123 16.7582 3.91504 16.7695 4.02884 16.7695H12.1883C12.4045 16.2347 12.5297 15.6431 12.5297 15.0285C12.5297 12.5023 10.4812 10.4428 7.9435 10.4428C5.41715 10.4428 3.35742 12.491 3.35742 15.0285C3.35742 15.6315 3.47122 16.2006 3.68743 16.7354Z" fill="black"/>
<path d="M43.3336 16.7695H51.8232C52.0394 16.2347 52.1647 15.6431 52.1647 15.0285C52.1647 12.5023 50.1161 10.4428 47.5784 10.4428C45.0521 10.4428 42.9922 12.491 42.9922 15.0285C42.9922 15.6431 43.1174 16.2347 43.3336 16.7695Z" fill="black"/>
<path d="M55.4437 11.147C55.7511 11.147 56.0013 11.5794 56.0013 12.1028C56.0013 12.6376 55.7511 13.0586 55.4437 13.0586C55.1364 13.0586 54.8861 12.6263 54.8861 12.1028C54.8861 11.568 55.1364 11.147 55.4437 11.147ZM54.1692 10.7031C54.3626 10.7031 54.522 10.8966 54.522 11.147C54.522 11.3859 54.3626 11.5907 54.1692 11.5907C53.9757 11.5907 53.8164 11.3973 53.8164 11.147C53.8164 10.8966 53.9757 10.7031 54.1692 10.7031Z" fill="#D8EAFC"/>
<path d="M25.5466 15.9062H25.3645C25.4557 12.3446 24.841 8.86263 23.521 5.55121L23.373 5.17571L23.5438 5.10751L23.6917 5.48301C25.0117 8.80561 25.6377 12.3218 25.5466 15.9062Z" fill="black"/>
<path d="M37.93 15.9844H15.2951C14.7944 15.9844 14.3734 15.5975 14.3393 15.1084C13.9524 10.2722 10.0603 9.08872 10.0149 9.07735L9.95803 9.06599L9.33203 4.22985L9.51411 4.20712L10.1172 8.92939C10.6066 9.10008 14.1458 10.4543 14.51 15.097C14.5441 15.4952 14.8855 15.8139 15.2951 15.8139H37.93C38.7721 15.8139 39.455 15.1538 39.4891 14.3231C39.5459 12.8666 39.5118 10.3518 38.9883 6.65351L39.1704 6.63077C39.6939 10.3518 39.728 12.8779 39.6712 14.3344C39.6257 15.2561 38.8631 15.9844 37.93 15.9844Z" fill="black"/>
<path d="M11.5267 7.70261C11.3219 7.70261 11.1625 7.86194 11.1625 8.06674C11.1625 8.27154 11.3219 8.43087 11.5267 8.43087H13.3361C13.5409 8.43087 13.7003 8.27154 13.7003 8.06674C13.7003 7.86194 13.5409 7.70261 13.3361 7.70261H11.5267ZM13.3361 8.60156H11.5267C11.2309 8.60156 10.9805 8.36266 10.9805 8.05537C10.9805 7.74827 11.2196 7.50919 11.5267 7.50919H13.3361C13.6321 7.50919 13.8823 7.74827 13.8823 8.05537C13.8823 8.36266 13.6321 8.60156 13.3361 8.60156Z" fill="black"/>
<path d="M26.0814 7.70261C25.8766 7.70261 25.7172 7.86194 25.7172 8.06674C25.7172 8.27154 25.8766 8.43087 26.0814 8.43087H27.8908C28.0958 8.43087 28.255 8.27154 28.255 8.06674C28.255 7.86194 28.0958 7.70261 27.8908 7.70261H26.0814ZM27.8908 8.60156H26.0814C25.7856 8.60156 25.5352 8.36266 25.5352 8.05537C25.5352 7.74827 25.7743 7.50919 26.0814 7.50919H27.8908C28.1867 7.50919 28.437 7.74827 28.437 8.05537C28.437 8.36266 28.1981 8.60156 27.8908 8.60156Z" fill="black"/>
<path d="M53.0303 10.2383C52.9735 10.2155 47.1697 7.91712 39.0558 6.72225H39.0329L37.3828 5.75491L37.9518 5.88014L39.1013 6.55155C47.2266 7.74642 53.201 10.1132 53.258 10.136L53.0303 10.2383Z" fill="black"/>
<path d="M55.8638 13.8008H51.9036L51.8809 13.6187H55.181L55.8638 13.8008Z" fill="black"/>
<path d="M7.94296 19.2383C10.2645 19.2383 12.1537 17.3493 12.1537 15.0279C12.1537 12.7066 10.2645 10.8177 7.94296 10.8177C5.62142 10.8177 3.73242 12.7066 3.73242 15.0279C3.73242 17.3493 5.62142 19.2383 7.94296 19.2383Z" fill="black"/>
<path d="M7.9435 17.7148C9.42305 17.7148 10.6292 16.5086 10.6292 15.0294C10.6292 13.5501 9.42305 12.3439 7.9435 12.3439C6.46415 12.3439 5.25781 13.5501 5.25781 15.0294C5.25781 16.5086 6.46415 17.7148 7.9435 17.7148Z" fill="white"/>
<path d="M7.94212 16.2461C8.61359 16.2461 9.15983 15.6999 9.15983 15.0285C9.15983 14.3571 8.61359 13.8109 7.94212 13.8109C7.27084 13.8109 6.72461 14.3571 6.72461 15.0285C6.72461 15.6999 7.27084 16.2461 7.94212 16.2461Z" fill="black"/>
<path d="M8.63672 15.418L11.1744 15.3043V14.7581L8.63672 14.6442V15.418Z" fill="black"/>
<path d="M8.70444 14.8008L10.4113 12.9345L10.0245 12.5476L8.1582 14.2546L8.70444 14.8008Z" fill="black"/>
<path d="M8.3187 14.3359L8.20502 11.7984H7.65879L7.54492 14.3359H8.3187Z" fill="black"/>
<path d="M7.71427 14.2663L5.84802 12.5594L5.46094 12.9464L7.16803 14.8125L7.71427 14.2663Z" fill="black"/>
<path d="M7.23723 14.6521L4.71094 14.7659V15.3121L7.23723 15.4258V14.6521Z" fill="black"/>
<path d="M7.1794 15.2586L5.46094 17.1249L5.84802 17.5117L7.72563 15.8048L7.1794 15.2586Z" fill="black"/>
<path d="M7.55664 15.7356L7.67051 18.2617H8.21674L8.33042 15.7356H7.55664Z" fill="black"/>
<path d="M8.16992 15.7934L10.0362 17.5117L10.4231 17.1249L8.71615 15.2472L8.16992 15.7934Z" fill="black"/>
<path d="M47.5797 19.2383C49.9012 19.2383 51.7902 17.3493 51.7902 15.0279C51.7902 12.7066 49.9012 10.8177 47.5797 10.8177C45.2581 10.8177 43.3691 12.7066 43.3691 15.0279C43.3691 17.3493 45.2581 19.2383 47.5797 19.2383Z" fill="black"/>
<path d="M47.5783 17.7148C49.0576 17.7148 50.264 16.5086 50.264 15.0294C50.264 13.5501 49.0576 12.3439 47.5783 12.3439C46.0989 12.3439 44.8926 13.5501 44.8926 15.0294C44.8926 16.5086 46.0989 17.7148 47.5783 17.7148Z" fill="white"/>
<path d="M47.579 16.2461C48.2505 16.2461 48.7967 15.6999 48.7967 15.0285C48.7967 14.3571 48.2505 13.8109 47.579 13.8109C46.9076 13.8109 46.3613 14.3571 46.3613 15.0285C46.3613 15.6999 46.9076 16.2461 47.579 16.2461Z" fill="black"/>
<path d="M48.2734 15.418L50.8112 15.3043V14.7581L48.2734 14.6442V15.418Z" fill="black"/>
<path d="M48.3412 14.8008L50.0483 12.9345L49.6614 12.5476L47.7949 14.2546L48.3412 14.8008Z" fill="black"/>
<path d="M47.9554 14.3359L47.8416 11.7984H47.2953L47.1816 14.3359H47.9554Z" fill="black"/>
<path d="M47.351 14.2663L45.4732 12.5594L45.0977 12.9464L46.8048 14.8125L47.351 14.2663Z" fill="black"/>
<path d="M46.874 14.6521L44.3477 14.7659V15.3121L46.874 15.4258V14.6521Z" fill="black"/>
<path d="M46.8161 15.2586L45.0977 17.1249L45.4845 17.5117L47.3623 15.8048L46.8161 15.2586Z" fill="black"/>
<path d="M47.1934 15.7356L47.307 18.2617H47.8535L47.9671 15.7356H47.1934Z" fill="black"/>
<path d="M47.7949 15.7934L49.6727 17.5117L50.0596 17.1249L48.3525 15.2472L47.7949 15.7934Z" fill="black"/>
<path d="M56.7392 13.4603C56.3072 13.7212 55.7957 13.789 55.3184 13.6526C54.8518 13.5048 54.4649 13.1521 54.2714 12.6854C53.9757 11.9686 53.5317 11.3314 52.9741 10.7966C52.8716 10.6941 52.8489 10.5462 52.9059 10.4209C52.9628 10.2845 53.0994 10.2161 53.2358 10.2275C54.3512 10.3414 55.4323 10.6827 56.4109 11.2517L56.8366 11.5008C56.8338 11.415 56.8298 11.3301 56.8243 11.2473L56.5134 11.0696C55.5232 10.4893 54.4194 10.1366 53.2474 10.0227C53.2358 10.0227 53.2131 10.0227 53.2017 10.0227C52.9855 10.0227 52.7921 10.1479 52.7125 10.3414C52.6214 10.5462 52.6668 10.7851 52.8262 10.9444C53.3724 11.4678 53.7936 12.0824 54.078 12.7652C54.2942 13.2885 54.7267 13.6755 55.2616 13.8462C55.4437 13.8917 55.6257 13.9258 55.8078 13.9258C56.1151 13.9258 56.4249 13.8462 56.7095 13.7096L56.7216 13.6124C56.7265 13.5725 56.7326 13.5211 56.7392 13.4603Z" fill="black"/>
</svg>

<svg xmlns="http://www.w3.org/2000/svg" width="57" height="20" fill="none" viewBox="0 0 57 20"><path fill="#c2e1ff" d="m56.836 11.495-.414-.242a7.9 7.9 0 0 0-3.175-1.024.32.32 0 0 0-.33.193.33.33 0 0 0 .069.376 5.55 5.55 0 0 1 1.297 1.889c.193.466.58.82 1.047.967.473.135.979.07 1.408-.185.045-.4.122-1.23.098-1.974"/><path fill="#aaa" d="M56.739 13.46c-.432.26-.944.328-1.421.191a1.7 1.7 0 0 1-1.047-.967 5.55 5.55 0 0 0-1.298-1.888.33.33 0 0 1-.068-.376.32.32 0 0 1 .33-.194 7.9 7.9 0 0 1 3.175 1.025l.426.249a8 8 0 0 0-.012-.254c-.083-.413-.15-.643-.368-1.03-1.855-3.312-14.59-4.769-18.277-5.008l-4.665-3.163A11.87 11.87 0 0 0 26.458.008C18.993.236 10.32 1.897 3.607 5.174a6.6 6.6 0 0 1-2.504.672l-.08 1.502a12.1 12.1 0 0 1-.75 3.584 4.36 4.36 0 0 0 .41 3.858 4.36 4.36 0 0 0 3.334 1.98h48.137l2.925-.171a1.67 1.67 0 0 0 1.377-.876l.265-2.111z"/><path fill="#000" d="m1.035 7.2-.011.148a12.1 12.1 0 0 1-.751 3.584c-.034.092-.069.183-.091.285.75.148 1.502-.16 1.775-.75.125-.286.25-.57.364-.854.341-.843-.091-1.798-1.047-2.288z"/><path fill="#000" d="M1.012 7.575a12.8 12.8 0 0 1-.717 3.312c.512.08 1.127-.08 1.354-.57.125-.272.24-.557.353-.841.307-.763-.205-1.502-.888-1.855zM37.953 5.879l-4.825-3.277A11.2 11.2 0 0 0 26.482.679c-5.303.17-11.187 1.047-16.558 2.73a.84.84 0 0 0-.592.82c0 .375.25.694.614.796l.137.035c7.454.455 19.13.42 27.87.819"/><path fill="#999" d="M22.031 1.342c-2.628.261-5.269.694-7.84 1.286l-.353.148a.56.56 0 0 0-.33.66c.09.398.148.796.17 1.206.012.114.08.205.182.239 1.252.045 2.493.08 3.745.113 1.604.046 3.209.08 4.802.114zm12.223 2.47-1.332-.9a10.96 10.96 0 0 0-6.43-1.866 70 70 0 0 0-3.06.17l1.08 3.926 1.718.035c2.515.045 5.03.102 7.534.17a.824.824 0 0 0 .83-.58.86.86 0 0 0-.34-.956"/><path fill="#fff" d="m22.396 4.97-.069.136a658 658 0 0 1-4.734-.114q-.666-.015-1.331-.034l1.456-3.027a62 62 0 0 1 4.313-.58zm1.82-3.812c-.262.022-.523.034-.785.057l.273 1.012zm7.34.967a10.8 10.8 0 0 0-3.755-1.035l-1.957 4.085.364.01c1.274.024 2.56.047 3.835.08z"/><path fill="#000" d="M3.687 16.735q.171.035.342.035h8.16a4.587 4.587 0 1 0-8.83-1.741c-.002.603.112 1.172.328 1.706M43.334 16.77h8.49a4.587 4.587 0 1 0-8.49 0"/><path fill="#d8eafc" d="M55.444 11.147c.307 0 .557.432.557.956 0 .535-.25.956-.557.956s-.558-.433-.558-.956c0-.535.25-.956.558-.956m-1.275-.444c.194 0 .353.194.353.444 0 .239-.16.444-.353.444s-.353-.194-.353-.444.16-.444.353-.444"/><path fill="#000" d="M25.547 15.906h-.183a26 26 0 0 0-1.843-10.355l-.148-.375.17-.068.149.375a26.3 26.3 0 0 1 1.855 10.423"/><path fill="#000" d="M37.93 15.984H15.295a.956.956 0 0 1-.956-.876c-.387-4.836-4.279-6.02-4.324-6.03l-.057-.012-.626-4.836.182-.023.603 4.722c.49.171 4.029 1.525 4.393 6.168a.79.79 0 0 0 .785.717H37.93c.842 0 1.525-.66 1.56-1.49.056-1.457.022-3.972-.502-7.67l.182-.023c.524 3.72.558 6.247.501 7.703a1.74 1.74 0 0 1-1.741 1.65"/><path fill="#000" d="M11.527 7.703a.36.36 0 0 0-.364.364c0 .205.159.364.364.364h1.81a.36.36 0 0 0 .363-.364.36.36 0 0 0-.364-.364zm1.81.899h-1.81a.546.546 0 0 1-.546-.547.54.54 0 0 1 .546-.546h1.81a.546.546 0 0 1 0 1.093M26.081 7.703a.36.36 0 0 0-.364.364c0 .205.16.364.364.364h1.81a.36.36 0 0 0 .364-.364.36.36 0 0 0-.364-.364zm1.81.899h-1.81a.546.546 0 0 1-.546-.547.54.54 0 0 1 .546-.546h1.81c.296 0 .546.24.546.546a.54.54 0 0 1-.546.547M53.03 10.238c-.056-.022-5.86-2.32-13.974-3.516h-.023l-1.65-.967.569.125 1.15.672c8.125 1.194 14.099 3.561 14.156 3.584zM55.864 13.8h-3.96l-.023-.181h3.3zM7.943 19.238a4.216 4.216 0 0 0 4.21-4.21c0-2.321-1.889-4.21-4.21-4.21a4.215 4.215 0 0 0-4.21 4.21 4.215 4.215 0 0 0 4.21 4.21"/><path fill="#fff" d="M7.944 17.715a2.69 2.69 0 0 0 2.685-2.686 2.69 2.69 0 0 0-2.685-2.685 2.69 2.69 0 0 0-2.686 2.685 2.69 2.69 0 0 0 2.686 2.686"/><path fill="#000" d="M7.942 16.246c.672 0 1.218-.546 1.218-1.217a1.219 1.219 0 0 0-2.435 0c0 .67.546 1.217 1.217 1.217"/><path fill="#000" d="m8.637 15.418 2.537-.114v-.546l-2.537-.114z"/><path fill="#000" d="m8.704 14.8 1.707-1.866-.386-.386-1.867 1.707z"/><path fill="#000" d="m8.319 14.336-.114-2.538h-.546l-.114 2.538z"/><path fill="#000" d="M7.714 14.266 5.848 12.56l-.387.387 1.707 1.867z"/><path fill="#000" d="m7.237 14.652-2.526.114v.546l2.526.114z"/><path fill="#000" d="m7.18 15.259-1.72 1.866.388.387 1.878-1.707z"/><path fill="#000" d="m7.557 15.736.114 2.526h.546l.113-2.526z"/><path fill="#000" d="m8.17 15.793 1.866 1.719.387-.387-1.707-1.878zM47.58 19.238a4.215 4.215 0 0 0 4.21-4.21 4.215 4.215 0 0 0-4.21-4.21 4.215 4.215 0 0 0-4.21 4.21 4.215 4.215 0 0 0 4.21 4.21"/><path fill="#fff" d="M47.578 17.715a2.69 2.69 0 0 0 2.686-2.686 2.69 2.69 0 0 0-2.686-2.685 2.69 2.69 0 0 0-2.685 2.685 2.69 2.69 0 0 0 2.685 2.686"/><path fill="#000" d="M47.579 16.246c.672 0 1.218-.546 1.218-1.217a1.219 1.219 0 0 0-2.435 0c0 .67.546 1.217 1.217 1.217"/><path fill="#000" d="m48.273 15.418 2.538-.114v-.546l-2.538-.114z"/><path fill="#000" d="m48.341 14.8 1.707-1.866-.387-.386-1.866 1.707z"/><path fill="#000" d="m47.955 14.336-.113-2.538h-.547l-.113 2.538z"/><path fill="#000" d="m47.351 14.266-1.878-1.707-.375.387 1.707 1.867z"/><path fill="#000" d="m46.874 14.652-2.526.114v.546l2.526.114z"/><path fill="#000" d="m46.816 15.259-1.718 1.866.386.387 1.878-1.707z"/><path fill="#000" d="m47.193 15.736.114 2.526h.546l.114-2.526z"/><path fill="#000" d="m47.795 15.793 1.878 1.719.387-.387-1.708-1.878zM56.74 13.46c-.433.261-.944.329-1.422.193a1.7 1.7 0 0 1-1.047-.968 5.55 5.55 0 0 0-1.297-1.888.33.33 0 0 1-.068-.376.32.32 0 0 1 .33-.194 7.9 7.9 0 0 1 3.175 1.025l.426.249a8 8 0 0 0-.013-.254l-.31-.177a7.9 7.9 0 0 0-3.267-1.047h-.045a.52.52 0 0 0-.49.318.54.54 0 0 0 .114.603 5.4 5.4 0 0 1 1.252 1.821c.216.524.649.91 1.184 1.081.182.046.364.08.546.08a2.1 2.1 0 0 0 .901-.216l.013-.098z"/></svg>
